icons/outline/wall-off.svg

<!--
category: Buildings
tags: [brick, security, firewall, building, renovation, construction]
unicode: "f43c"
version: "1.94"
-->
<svg
  xmlns="http://www.w3.org/2000/svg"
  width="24"
  height="24"
  viewBox="0 0 24 24"
  fill="none"
  stroke="currentColor"
  stroke-width="2"
  stroke-linecap="round"
  stroke-linejoin="round"
>
  <path d="M8 4h10a2 2 0 0 1 2 2v10m-.589 3.417c-.361 .36 -.86 .583 -1.411 .583h-12a2 2 0 0 1 -2 -2v-12c0 -.55 .222 -1.047 .58 -1.409m-.58 3.409h4m4 0h8m0 4h-4m-4 0h-8m0 4h12m-7 -12v1m5 3v2m-6 2v4m3 0v4m-8 -17l18 18" />
</svg>

<!--
category: Buildings
tags: [brick, security, firewall, building, renovation, construction]
unicode: "f43c"
version: "1.94"
-->
<svg
  xmlns="http://www.w3.org/2000/svg"
  width="24"
  height="24"
  viewBox="0 0 24 24"
  fill="none"
  stroke="currentColor"
  stroke-width="2"
  stroke-linecap="round"
  stroke-linejoin="round"
>
    <path d="M8 4h10a2 2 0 0 1 2 2v10m-.589 3.417c-.361 .36 -.86 .583 -1.411 .583h-12a2 2 0 0 1 -2 -2v-12c0 -.55 .222 -1.047 .58 -1.409M4 8h4m4 0h8M20 12h-4m-4 0h-8M4 16h12M9 4v1M14 8v2M8 12v4M11 16v4M3 3l18 18" />
</svg>
